static/img/kroki/27e5e4e52c2d786d93ecaefb382b6093.svg

<?xml version="1.0" encoding="us-ascii" standalone="no"?><svg xmlns="http://www.w3.org/2000/svg" xmlns:xlink="http://www.w3.org/1999/xlink" contentStyleType="text/css" height="732px" preserveAspectRatio="none" style="width:347px;height:732px;" version="1.1" viewBox="0 0 347 732" width="347px" zoomAndPan="magnify"><defs/><g><!--class aws_cloudformation_stack--><g id="elem_aws_cloudformation_stack"><rect codeLine="23" fill="#3D176E" height="39.7891" id="aws_cloudformation_stack" rx="2.5" ry="2.5" style="stroke:#000D19;stroke-width:0.5;" width="263" x="42" y="686.44"/><ellipse cx="57" cy="706.3345" fill="#ADD1B2" rx="11" ry="11" style="stroke:#181818;stroke-width:1.0;"/><path d="M59.9688,711.9752 Q59.3906,712.272 58.75,712.4127 Q58.1094,712.5689 57.4063,712.5689 Q54.9063,712.5689 53.5781,710.9283 Q52.2656,709.272 52.2656,706.147 Q52.2656,703.022 53.5781,701.3658 Q54.9063,699.7095 57.4063,699.7095 Q58.1094,699.7095 58.75,699.8658 Q59.4063,700.022 59.9688,700.3189 L59.9688,703.0377 Q59.3438,702.4595 58.75,702.1939 Q58.1563,701.9127 57.5313,701.9127 Q56.1875,701.9127 55.5,702.9908 Q54.8125,704.0533 54.8125,706.147 Q54.8125,708.2408 55.5,709.3189 Q56.1875,710.3814 57.5313,710.3814 Q58.1563,710.3814 58.75,710.1158 Q59.3438,709.8345 59.9688,709.2564 L59.9688,711.9752 Z " fill="#000000"/><text fill="#D9B8FF" font-family="Helvetica" font-size="17" lengthAdjust="spacing" textLength="221" x="76" y="712.2198">aws_cloudformation_stack</text></g><!--class resource--><g id="elem_resource"><rect codeLine="26" fill="#3D176E" height="310.7578" id="resource" rx="2.5" ry="2.5" style="stroke:#000D19;stroke-width:0.5;" width="227" x="60" y="7"/><ellipse cx="128.75" cy="26.8945" fill="#ADD1B2" rx="11" ry="11" style="stroke:#181818;stroke-width:1.0;"/><path d="M131.7188,32.5352 Q131.1406,32.832 130.5,32.9727 Q129.8594,33.1289 129.1563,33.1289 Q126.6563,33.1289 125.3281,31.4883 Q124.0156,29.832 124.0156,26.707 Q124.0156,23.582 125.3281,21.9258 Q126.6563,20.2695 129.1563,20.2695 Q129.8594,20.2695 130.5,20.4258 Q131.1563,20.582 131.7188,20.8789 L131.7188,23.5977 Q131.0938,23.0195 130.5,22.7539 Q129.9063,22.4727 129.2813,22.4727 Q127.9375,22.4727 127.25,23.5508 Q126.5625,24.6133 126.5625,26.707 Q126.5625,28.8008 127.25,29.8789 Q127.9375,30.9414 129.2813,30.9414 Q129.9063,30.9414 130.5,30.6758 Q131.0938,30.3945 131.7188,29.8164 L131.7188,32.5352 Z " fill="#000000"/><text fill="#D9B8FF" font-family="Helvetica" font-size="17" lengthAdjust="spacing" textLength="71" x="154.25" y="32.7798">resource</text><line style="stroke:#000D19;stroke-width:0.5;" x1="61" x2="286" y1="46.7891" y2="46.7891"/><text fill="#D9B8FF" font-family="sans-serif" font-size="14" font-weight="bold" lengthAdjust="spacing" textLength="29" x="71" y="68.7842">age</text><text fill="#D9B8FF" font-family="sans-serif" font-size="14" lengthAdjust="spacing" textLength="66" x="100" y="68.7842">: duration</text><text fill="#D9B8FF" font-family="sans-serif" font-size="14" font-weight="bold" lengthAdjust="spacing" textLength="43" x="71" y="95.0811">atime</text><text fill="#D9B8FF" font-family="sans-serif" font-size="14" lengthAdjust="spacing" textLength="70" x="114" y="95.0811">: datetime</text><text fill="#D9B8FF" font-family="sans-serif" font-size="14" font-weight="bold" lengthAdjust="spacing" textLength="43" x="71" y="121.3779">ctime</text><text fill="#D9B8FF" font-family="sans-serif" font-size="14" lengthAdjust="spacing" textLength="70" x="114" y="121.3779">: datetime</text><text fill="#D9B8FF" font-family="sans-serif" font-size="14" font-weight="bold" lengthAdjust="spacing" textLength="14" x="71" y="147.6748">id</text><text fill="#D9B8FF" font-family="sans-serif" font-size="14" lengthAdjust="spacing" textLength="48" x="85" y="147.6748">: string</text><text fill="#D9B8FF" font-family="sans-serif" font-size="14" font-weight="bold" lengthAdjust="spacing" textLength="33" x="71" y="173.9717">kind</text><text fill="#D9B8FF" font-family="sans-serif" font-size="14" lengthAdjust="spacing" textLength="48" x="104" y="173.9717">: string</text><text fill="#D9B8FF" font-family="sans-serif" font-size="14" font-weight="bold" lengthAdjust="spacing" textLength="90" x="71" y="200.2686">last_access</text><text fill="#D9B8FF" font-family="sans-serif" font-size="14" lengthAdjust="spacing" textLength="66" x="161" y="200.2686">: duration</text><text fill="#D9B8FF" font-family="sans-serif" font-size="14" font-weight="bold" lengthAdjust="spacing" textLength="90" x="71" y="226.5654">last_update</text><text fill="#D9B8FF" font-family="sans-serif" font-size="14" lengthAdjust="spacing" textLength="66" x="161" y="226.5654">: duration</text><text fill="#D9B8FF" font-family="sans-serif" font-size="14" font-weight="bold" lengthAdjust="spacing" textLength="48" x="71" y="252.8623">mtime</text><text fill="#D9B8FF" font-family="sans-serif" font-size="14" lengthAdjust="spacing" textLength="70" x="119" y="252.8623">: datetime</text><text fill="#D9B8FF" font-family="sans-serif" font-size="14" font-weight="bold" lengthAdjust="spacing" textLength="43" x="71" y="279.1592">name</text><text fill="#D9B8FF" font-family="sans-serif" font-size="14" lengthAdjust="spacing" textLength="48" x="114" y="279.1592">: string</text><text fill="#D9B8FF" font-family="sans-serif" font-size="14" font-weight="bold" lengthAdjust="spacing" textLength="34" x="71" y="305.4561">tags</text><text fill="#D9B8FF" font-family="sans-serif" font-size="14" lengthAdjust="spacing" textLength="171" x="105" y="305.4561">: dictionary[string, string]</text></g><!--class stack--><g id="elem_stack"><rect codeLine="38" fill="#3D176E" height="126.6797" id="stack" rx="2.5" ry="2.5" style="stroke:#000D19;stroke-width:0.5;" width="333" x="7" y="438.76"/><ellipse cx="142.75" cy="458.6545" fill="#ADD1B2" rx="11" ry="11" style="stroke:#181818;stroke-width:1.0;"/><path d="M145.7188,464.2952 Q145.1406,464.592 144.5,464.7327 Q143.8594,464.8889 143.1563,464.8889 Q140.6563,464.8889 139.3281,463.2483 Q138.0156,461.592 138.0156,458.467 Q138.0156,455.342 139.3281,453.6858 Q140.6563,452.0295 143.1563,452.0295 Q143.8594,452.0295 144.5,452.1858 Q145.1563,452.342 145.7188,452.6389 L145.7188,455.3577 Q145.0938,454.7795 144.5,454.5139 Q143.9063,454.2327 143.2813,454.2327 Q141.9375,454.2327 141.25,455.3108 Q140.5625,456.3733 140.5625,458.467 Q140.5625,460.5608 141.25,461.6389 Q141.9375,462.7014 143.2813,462.7014 Q143.9063,462.7014 144.5,462.4358 Q145.0938,462.1545 145.7188,461.5764 L145.7188,464.2952 Z " fill="#000000"/><text fill="#D9B8FF" font-family="Helvetica" font-size="17" lengthAdjust="spacing" textLength="43" x="168.25" y="464.5398">stack</text><line style="stroke:#000D19;stroke-width:0.5;" x1="8" x2="339" y1="478.5491" y2="478.5491"/><text fill="#D9B8FF" font-family="sans-serif" font-size="14" font-weight="bold" lengthAdjust="spacing" textLength="140" x="18" y="500.5442">stack_parameters</text><text fill="#D9B8FF" font-family="sans-serif" font-size="14" lengthAdjust="spacing" textLength="171" x="158" y="500.5442">: dictionary[string, string]</text><text fill="#D9B8FF" font-family="sans-serif" font-size="14" font-weight="bold" lengthAdjust="spacing" textLength="98" x="18" y="526.8411">stack_status</text><text fill="#D9B8FF" font-family="sans-serif" font-size="14" lengthAdjust="spacing" textLength="48" x="116" y="526.8411">: string</text><text fill="#D9B8FF" font-family="sans-serif" font-size="14" font-weight="bold" lengthAdjust="spacing" textLength="160" x="18" y="553.1379">stack_status_reason</text><text fill="#D9B8FF" font-family="sans-serif" font-size="14" lengthAdjust="spacing" textLength="48" x="178" y="553.1379">: string</text></g><!--reverse link stack to aws_cloudformation_stack--><g id="link_stack_aws_cloudformation_stack"><path codeLine="43" d="M173.5,583.7 C173.5,625.23 173.5,658.95 173.5,686.31 " fill="none" id="stack-backto-aws_cloudformation_stack" style="stroke:#FFAF37;stroke-width:2.0;"/><polygon fill="none" points="173.5,565.7,167.5,583.7,179.5,583.7,173.5,565.7" style="stroke:#FFAF37;stroke-width:2.0;"/></g><!--reverse link resource to stack--><g id="link_resource_stack"><path codeLine="44" d="M173.5,335.91 C173.5,378.46 173.5,404.24 173.5,438.32 " fill="none" id="resource-backto-stack" style="stroke:#FFAF37;stroke-width:2.0;"/><polygon fill="none" points="173.5,317.91,167.5,335.91,179.5,335.91,173.5,317.91" style="stroke:#FFAF37;stroke-width:2.0;"/></g><!--SRC=[XP9FR-8m4CNl-HIMUekA14LTocelBLBLNj2gtTjg5Gts95WaDXfFYkYVxxvE3CWaK2wHyzxFysPiBxL2WTMQjwB2Qe7a4hVIPWq4bRWdifkPBIs9gpo7V3pfce_My4LW3XMA9opVaBM4Bl5dgUNAe7FY9h8UGAuAihLHeJmJ6ESjD1nHinASksSclQWPesRKT76NvrsoM_Hgh4QJ7zZ3B2ca7J8S3jLesaKkHdqxzu5urUyeHl6XpIrZhyrUH4jzssL3H4ts1jtxPtly3KffKuZRI7i9FP51Ej9Vbw3ifg5pA5qSunW9BM_NEEjDXTCxbKzEmi_du4GsHoTWup9PsbhbbYfWRKtcs6yH7qdojMC8dQr9ejVI50fCqvz2rTJIZSAw2XemDckloHEQLetW_1CpXV_rpHuBFeipaD8_u4v2wzJhfbR7gKxa60ZIeJ134IfgsMm3sluDtlME-NSOTJzxchQhh3rEzATvgS1-W_zoxOxYOoCZ16TDv7yb8VFNvs0mE7iToU4E0XV4_m00]--></g></svg>

<svg xmlns="http://www.w3.org/2000/svg" width="347" height="732" viewBox="0 0 347 732"><rect width="263" height="39.789" x="42" y="686.44" fill="#3D176E" rx="2.5" ry="2.5" style="stroke:#000d19;stroke-width:.5"/><circle cx="57" cy="706.335" r="11" fill="#ADD1B2" style="stroke:#181818;stroke-width:1"/><path d="M59.969 711.975q-.578.297-1.219.438-.64.156-1.344.156-2.5 0-3.828-1.64-1.312-1.657-1.312-4.782t1.312-4.781q1.328-1.656 3.828-1.656.703 0 1.344.156.656.156 1.219.453v2.719q-.625-.578-1.219-.844-.594-.281-1.219-.281-1.343 0-2.031 1.078-.687 1.062-.687 3.156t.687 3.172q.688 1.062 2.031 1.062.625 0 1.219-.265.594-.281 1.219-.86z"/><text x="76" y="712.22" fill="#D9B8FF" font-family="Helvetica" font-size="17" textLength="221">aws_cloudformation_stack</text><rect width="227" height="310.758" x="60" y="7" fill="#3D176E" rx="2.5" ry="2.5" style="stroke:#000d19;stroke-width:.5"/><circle cx="128.75" cy="26.895" r="11" fill="#ADD1B2" style="stroke:#181818;stroke-width:1"/><path d="M131.719 32.535q-.578.297-1.219.438-.64.156-1.344.156-2.5 0-3.828-1.64-1.312-1.657-1.312-4.782t1.312-4.781q1.328-1.656 3.828-1.656.703 0 1.344.156.656.156 1.219.453v2.719q-.625-.578-1.219-.844-.594-.281-1.219-.281-1.344 0-2.031 1.078-.687 1.062-.687 3.156t.687 3.172q.688 1.062 2.031 1.062.625 0 1.219-.265.594-.281 1.219-.86z"/><text x="154.25" y="32.78" fill="#D9B8FF" font-family="Helvetica" font-size="17" textLength="71">resource</text><path d="M61 46.789h225" style="stroke:#000d19;stroke-width:.5"/><text x="71" y="68.784" fill="#D9B8FF" font-family="sans-serif" font-size="14" font-weight="bold" textLength="29">age</text><text x="100" y="68.784" fill="#D9B8FF" font-family="sans-serif" font-size="14" textLength="66">: duration</text><text x="71" y="95.081" fill="#D9B8FF" font-family="sans-serif" font-size="14" font-weight="bold" textLength="43">atime</text><text x="114" y="95.081" fill="#D9B8FF" font-family="sans-serif" font-size="14" textLength="70">: datetime</text><text x="71" y="121.378" fill="#D9B8FF" font-family="sans-serif" font-size="14" font-weight="bold" textLength="43">ctime</text><text x="114" y="121.378" fill="#D9B8FF" font-family="sans-serif" font-size="14" textLength="70">: datetime</text><text x="71" y="147.675" fill="#D9B8FF" font-family="sans-serif" font-size="14" font-weight="bold" textLength="14">id</text><text x="85" y="147.675" fill="#D9B8FF" font-family="sans-serif" font-size="14" textLength="48">: string</text><text x="71" y="173.972" fill="#D9B8FF" font-family="sans-serif" font-size="14" font-weight="bold" textLength="33">kind</text><text x="104" y="173.972" fill="#D9B8FF" font-family="sans-serif" font-size="14" textLength="48">: string</text><text x="71" y="200.269" fill="#D9B8FF" font-family="sans-serif" font-size="14" font-weight="bold" textLength="90">last_access</text><text x="161" y="200.269" fill="#D9B8FF" font-family="sans-serif" font-size="14" textLength="66">: duration</text><text x="71" y="226.565" fill="#D9B8FF" font-family="sans-serif" font-size="14" font-weight="bold" textLength="90">last_update</text><text x="161" y="226.565" fill="#D9B8FF" font-family="sans-serif" font-size="14" textLength="66">: duration</text><text x="71" y="252.862" fill="#D9B8FF" font-family="sans-serif" font-size="14" font-weight="bold" textLength="48">mtime</text><text x="119" y="252.862" fill="#D9B8FF" font-family="sans-serif" font-size="14" textLength="70">: datetime</text><text x="71" y="279.159" fill="#D9B8FF" font-family="sans-serif" font-size="14" font-weight="bold" textLength="43">name</text><text x="114" y="279.159" fill="#D9B8FF" font-family="sans-serif" font-size="14" textLength="48">: string</text><text x="71" y="305.456" fill="#D9B8FF" font-family="sans-serif" font-size="14" font-weight="bold" textLength="34">tags</text><text x="105" y="305.456" fill="#D9B8FF" font-family="sans-serif" font-size="14" textLength="171">: dictionary[string, string]</text><rect width="333" height="126.68" x="7" y="438.76" fill="#3D176E" rx="2.5" ry="2.5" style="stroke:#000d19;stroke-width:.5"/><circle cx="142.75" cy="458.654" r="11" fill="#ADD1B2" style="stroke:#181818;stroke-width:1"/><path d="M145.719 464.295q-.578.297-1.219.438-.64.156-1.344.156-2.5 0-3.828-1.64-1.312-1.657-1.312-4.782t1.312-4.781q1.328-1.656 3.828-1.656.703 0 1.344.156.656.156 1.219.453v2.719q-.625-.579-1.219-.844-.594-.281-1.219-.281-1.344 0-2.031 1.078-.687 1.062-.687 3.156t.687 3.172q.688 1.062 2.031 1.062.625 0 1.219-.265.594-.281 1.219-.86z"/><text x="168.25" y="464.54" fill="#D9B8FF" font-family="Helvetica" font-size="17" textLength="43">stack</text><path d="M8 478.549h331" style="stroke:#000d19;stroke-width:.5"/><text x="18" y="500.544" fill="#D9B8FF" font-family="sans-serif" font-size="14" font-weight="bold" textLength="140">stack_parameters</text><text x="158" y="500.544" fill="#D9B8FF" font-family="sans-serif" font-size="14" textLength="171">: dictionary[string, string]</text><text x="18" y="526.841" fill="#D9B8FF" font-family="sans-serif" font-size="14" font-weight="bold" textLength="98">stack_status</text><text x="116" y="526.841" fill="#D9B8FF" font-family="sans-serif" font-size="14" textLength="48">: string</text><text x="18" y="553.138" fill="#D9B8FF" font-family="sans-serif" font-size="14" font-weight="bold" textLength="160">stack_status_reason</text><text x="178" y="553.138" fill="#D9B8FF" font-family="sans-serif" font-size="14" textLength="48">: string</text><path fill="none" d="M173.5 583.7v102.61m0-120.61-6 18h12zm0-229.79v102.41m0-120.41-6 18h12z" style="stroke:#ffaf37;stroke-width:2"/></svg>
